X:14406
T:Wings
B:Scots Guard V2 P24
C:Bandmaster William Newstead(1869)
H: March Past of the Royal Engineers
O:Kevin Fraser
Z:Kevin Fraser
Q:1/4=90
K:HP
M:4/4
L:1/8
R:March
U: R = ///
U: r = //
U: V = !accent!
V:M gstem=up stem=down name="Melody"
V:H gstem=up stem=down name="Harmony"
V:C gstem=up stem=down name="C-Harmony"
V:S gstem=up stem=down dyn=up stafflines=1 clef=perc middle=G name="Snare" sname="Snare"" sname="Snare"
V:B gstem=up stem=down clef=none dyn=up name="Bass"
V:T gstem=up stem=down clef=none dyn=up name="Tenor"
V:BB gstem=up stem=down name="Brass Bass" sname="ABCD-C" transpose=-1  octave=-1 clef=bass
V:BC gstem=up stem=down name="Brass Chord" sname="ABCD-D" transpose=-1
V:BD gstem=up stem=down name="Brass Chord 2" sname="ABCD-B" transpose=-1
V:P gstem=up stem=down name="Piano" octave=-1
I:MIDI=program 110
I:linebreak $
% %score {M H}
%%MIDI program 109 #bagpipes
%%MIDI vol 100
% %landscape off
%%landscape 
[V:M]e  | {g}A2 {GdGe}A>B {GdG}c3 e     | {g}f>e {g}fa {ef}e2 {gcd}ce | {g}f>g af {g}e<c {gBd}B{G}A  | {g}B>c {Gdc}dc  {gBd}Be {Gdc}dB | $
[V:M]   | {g}A2 {GdGe}A>B {GdG}c3 e     | {g}f>e {g}fa {ef}e2 {gcd}ce | {g}f>g af {g}e<c {gBd}B>{d}c | {e}A4  {GAG}A3   || $
[V:M]e  | {ag}a2 {g}a2  {GdG}ag {fg}fe  | {g}f>e {g}fa {fg}fe {gcd}ce | {g}f>g af {g}e<c {gBd}B{G}A  | {g}B>c {Gdc}dc  {gBd}Be {Gdc}dB | $
[V:M]   | {g}A2 {GdGe}A>B {GdG}c3 e     | {g}f>e {g}fa {ef}e2 {gcd}ce | {g}f>g af {g}e<c {gBd}B>{d}c | {e}A4  {GAG}A3   || $


